X: 1285
T: The Black Cat Piddled in the White Cat's Eye
B: australian traditional tunes wiki
M:4/4
L:1/8
R: Reel
Q: 1/4=100
K:G
V:1 
|:D2|"G"G2B2 BBBB|G2B2 B4|G2B2 BBBB|"D7"d2A2A2AB|
c2cc c2A2|F2AA A2AB|c2ccB2A2|"G"B2G2G2:|
|:ef|"G"g2(3fgf e2dd|g2f2e4|g2f2e2d2|"D7"cAAAA2de|
f2e2ddde|f2e2dddd|A2BcB2A2|"G"B2G2G2:|
% abcbook-tune_id 6342d53a84308b347d44e530


% abcbook-boost 0
% abcbook-tablature 
% abcbook-transpose 
% abcbook-lastupdated 1665324357400
% abcbook-soundfonts 
% abcbook-repeats 1
% NFF Book 2006

